_icons/SVG/040-wigglytuff-shiny.svg

<svg xmlns="http://www.w3.org/2000/svg" width="32" height="32"><path fill="#EAB5D7" d="M11.796 7.234a11.769 11.769 0 00-1.971-2.651C8.263 3.02 2.902-1.222 1.34.34-.222 1.902 4.02 7.263 5.582 8.825a11.834 11.834 0 002.607 1.947c-1.356 1.978-2.32 4.358-2.811 6.743l-3.42 1.71a2 2 0 00-1.003 2.421v.001a1.67 1.67 0 001.859 1.119l2.263-.377C5.663 27.957 9.86 30 16 30V6c-1.533 0-2.939.463-4.204 1.234z"/><path fill="#E2A1C8" d="M29.894 19.224l-3.258-1.629c-.486-2.412-1.455-4.824-2.826-6.824a11.834 11.834 0 002.607-1.947c1.562-1.562 5.805-6.923 4.243-8.485-1.562-1.562-6.923 2.681-8.485 4.243a11.822 11.822 0 00-1.971 2.651C18.939 6.463 17.533 6 16 6v24c6.13 0 10.324-2.038 10.919-7.588l2.119.353a1.67 1.67 0 001.859-1.119v-.001a2 2 0 00-1.003-2.421z"/><ellipse transform="rotate(-80.003 21.999 30.101)" fill="#DB92BB" cx="22" cy="30.101" rx="1.5" ry="5"/><ellipse transform="rotate(-10.003 10 30.11)" fill="#E2A1C8" cx="10" cy="30.101" rx="5" ry="1.5"/><circle fill="#FFF" cx="10.5" cy="14.5" r="3"/><path fill="#53BF8C" d="M10.5 15.167a2.648 2.648 0 01-1.977-.892c-.009.074-.023.148-.023.225a2 2 0 104 0c0-.077-.014-.151-.023-.225a2.651 2.651 0 01-1.977.892z"/><path fill="#60CD96" d="M10.5 15.167c.788 0 1.489-.348 1.977-.892-.113-.997-.95-1.775-1.977-1.775s-1.864.778-1.977 1.775a2.651 2.651 0 001.977.892z"/><circle fill="#FFF" cx="10.5" cy="13.5" r=".5"/><circle fill="#F7F7F7" cx="21.5" cy="14.5" r="3"/><path fill="#46B080" d="M21.5 15.167a2.648 2.648 0 01-1.977-.892c-.009.074-.023.148-.023.225a2 2 0 104 0c0-.077-.014-.151-.023-.225a2.651 2.651 0 01-1.977.892z"/><path fill="#53BF8C" d="M21.5 15.167c.788 0 1.489-.348 1.977-.892-.113-.997-.95-1.775-1.977-1.775s-1.864.778-1.977 1.775a2.651 2.651 0 001.977.892z"/><circle fill="#F7F7F7" cx="21.5" cy="13.5" r=".5"/><path fill="#EDD1E6" d="M15.98 16.989c-3.866.012-6.986 4.603-6.973 9.021.003.996.172 1.945.466 2.823 1.767.811 3.987 1.163 6.546 1.156l-.039-13z"/><path fill="#EAC3DE" d="M22.543 28.824A8.97 8.97 0 0023 26c0-4.418-3.134-9-7-9v13c2.56 0 4.778-.359 6.543-1.176z"/><path fill="#373F3F" d="M16 18.5c-.57 0-.767-.345-.778-.365a.25.25 0 00-.446.226c.013.027.33.639 1.224.639v-.5z"/><path fill="#2B3332" d="M17.224 18.362a.249.249 0 00-.109-.332.251.251 0 00-.336.105c-.009.015-.204.365-.779.365v.5c.894 0 1.21-.612 1.224-.638z"/><path fill="#EAB5D7" d="M16.011 11V6c1.447 0 2.779.417 3.989 1.11A3.995 3.995 0 0116.011 11z"/><path fill="#EDD1E6" d="M16.011 11a3 3 0 110-6v6z"/><path fill="#EAC3DE" d="M16.011 5a2 2 0 110 4V5z"/><path fill="#373F3F" d="M8.783 9.95a12.116 12.116 0 012.178-2.143A10.737 10.737 0 009.118 5.29C7.662 3.834 3.93 1 2.283 1c-.14 0-.215.025-.236.047-.546.545 1.675 4.503 4.242 7.071.676.675 1.6 1.368 2.494 1.832z"/><path fill="#2B3332" d="M23.217 9.95a10.726 10.726 0 002.494-1.832c2.567-2.568 4.788-6.526 4.242-7.071-.021-.022-.097-.047-.236-.047-1.646 0-5.379 2.834-6.835 4.29a10.705 10.705 0 00-1.842 2.517 12.144 12.144 0 012.177 2.143z"/></svg>

<?xml version="1.0" encoding="utf-8"?>
<!-- Generator: Adobe Illustrator 23.0.6, SVG Export Plug-In . SVG Version: 6.00 Build 0)  -->
<svg version="1.1" xmlns="http://www.w3.org/2000/svg" xmlns:xlink="http://www.w3.org/1999/xlink" x="0px" y="0px" width="32px"
	 height="32px" viewBox="0 0 32 32" enable-background="new 0 0 32 32" xml:space="preserve">
<g id="icons">
	<g>
		<path fill="#EAB5D7" d="M11.796,7.234c-0.54-1.015-1.305-1.986-1.971-2.651C8.263,3.02,2.902-1.222,1.34,0.34
			C-0.222,1.902,4.02,7.263,5.582,8.825c0.656,0.656,1.608,1.408,2.607,1.947c-1.356,1.978-2.32,4.358-2.811,6.743l-3.42,1.71
			c-0.89,0.445-1.318,1.477-1.003,2.421l0,0.001c0.26,0.78,1.048,1.254,1.859,1.119l2.263-0.377C5.663,27.957,9.86,30,16,30V6
			C14.467,6,13.061,6.463,11.796,7.234z"/>
		<path fill="#E2A1C8" d="M29.894,19.224l-3.258-1.629c-0.486-2.412-1.455-4.824-2.826-6.824c0.999-0.539,1.951-1.291,2.607-1.947
			c1.562-1.562,5.805-6.923,4.243-8.485c-1.562-1.562-6.923,2.681-8.485,4.243c-0.666,0.666-1.43,1.636-1.971,2.651
			C18.939,6.463,17.533,6,16,6v24c6.13,0,10.324-2.038,10.919-7.588l2.119,0.353c0.811,0.135,1.599-0.34,1.859-1.119l0-0.001
			C31.212,20.701,30.784,19.669,29.894,19.224z"/>
		
			<ellipse transform="matrix(0.1736 -0.9848 0.9848 0.1736 -11.4643 46.5401)" fill="#DB92BB" cx="22" cy="30.101" rx="1.5" ry="5"/>
		<ellipse transform="matrix(0.9848 -0.1736 0.1736 0.9848 -5.0751 2.1938)" fill="#E2A1C8" cx="10" cy="30.101" rx="5" ry="1.5"/>
		<circle fill="#FFFFFF" cx="10.5" cy="14.5" r="3"/>
		<path fill="#53BF8C" d="M10.5,15.167c-0.788,0-1.489-0.348-1.977-0.892C8.514,14.349,8.5,14.423,8.5,14.5c0,1.105,0.895,2,2,2
			s2-0.895,2-2c0-0.077-0.014-0.151-0.023-0.225C11.989,14.818,11.288,15.167,10.5,15.167z"/>
		<path fill="#60CD96" d="M10.5,15.167c0.788,0,1.489-0.348,1.977-0.892c-0.113-0.997-0.95-1.775-1.977-1.775
			s-1.864,0.778-1.977,1.775C9.011,14.818,9.712,15.167,10.5,15.167z"/>
		<circle fill="#FFFFFF" cx="10.5" cy="13.5" r="0.5"/>
		<circle fill="#F7F7F7" cx="21.5" cy="14.5" r="3"/>
		<path fill="#46B080" d="M21.5,15.167c-0.788,0-1.489-0.348-1.977-0.892C19.514,14.349,19.5,14.423,19.5,14.5c0,1.105,0.895,2,2,2
			s2-0.895,2-2c0-0.077-0.014-0.151-0.023-0.225C22.989,14.818,22.288,15.167,21.5,15.167z"/>
		<path fill="#53BF8C" d="M21.5,15.167c0.788,0,1.489-0.348,1.977-0.892c-0.113-0.997-0.95-1.775-1.977-1.775
			s-1.864,0.778-1.977,1.775C20.011,14.818,20.712,15.167,21.5,15.167z"/>
		<circle fill="#F7F7F7" cx="21.5" cy="13.5" r="0.5"/>
		<path fill="#EDD1E6" d="M15.98,16.989c-3.866,0.012-6.986,4.603-6.973,9.021c0.003,0.996,0.172,1.945,0.466,2.823
			c1.767,0.811,3.987,1.163,6.546,1.156L15.98,16.989z"/>
		<path fill="#EAC3DE" d="M22.543,28.824C22.834,27.945,23,26.996,23,26c0-4.418-3.134-9-7-9v13
			C18.56,30,20.778,29.641,22.543,28.824z"/>
		<path fill="#373F3F" d="M16,18.5c-0.57,0-0.767-0.345-0.778-0.365c-0.063-0.121-0.21-0.169-0.334-0.109
			c-0.124,0.062-0.173,0.212-0.112,0.335C14.789,18.388,15.106,19,16,19V18.5z"/>
		<path fill="#2B3332" d="M17.224,18.362c0.061-0.122,0.012-0.269-0.109-0.332c-0.121-0.063-0.272-0.015-0.336,0.105
			C16.77,18.15,16.575,18.5,16,18.5V19C16.894,19,17.21,18.388,17.224,18.362z"/>
		<path fill="#EAB5D7" d="M16.011,11V6C17.458,6,18.79,6.417,20,7.11C19.94,9.267,18.182,11,16.011,11z"/>
		<path fill="#EDD1E6" d="M16.011,11c-1.657,0-3-1.343-3-3s1.343-3,3-3V11z"/>
		<path fill="#EAC3DE" d="M16.011,5c1.105,0,2,0.895,2,2s-0.895,2-2,2V5z"/>
		<path fill="#373F3F" d="M8.783,9.95c0.651-0.824,1.385-1.541,2.178-2.143C10.5,6.916,9.809,5.981,9.118,5.29
			C7.662,3.834,3.93,1,2.283,1c-0.14,0-0.215,0.025-0.236,0.047C1.501,1.592,3.722,5.55,6.289,8.118
			C6.965,8.793,7.889,9.486,8.783,9.95z"/>
		<path fill="#2B3332" d="M23.217,9.95c0.894-0.464,1.818-1.157,2.494-1.832c2.567-2.568,4.788-6.526,4.242-7.071
			C29.932,1.025,29.856,1,29.717,1c-1.646,0-5.379,2.834-6.835,4.29C22.191,5.981,21.5,6.916,21.04,7.807
			C21.832,8.409,22.566,9.126,23.217,9.95z"/>
	</g>
</g>
<g id="labels">
</g>
</svg>
